X: 14323
T: Gallant Boys Of Tipperary, The
R: jig
M: 6/8
K: Dmajor
A[dD][dD] BAF|Ade fdB|A2A BAF|AFD E2B|
A3 BAF|Ade fdB|A2A AFE|FDA d2B:|
ABd eff|ede fdB|AB/d/e f2d|edB BAF|
ABd eff|ede fdA|B2d AFD|EDA d2B|
ABd fed|ede fdB|ABd f2d|edB BAF|
ABd eff|e2e fdA|BAd AFD|EDA d2B||

